console-client/ionicons/svg/reader-sharp.svg

<svg xmlns="http://www.w3.org/2000/svg" class="ionicon" viewBox="0 0 512 512"><title>Reader</title><path d="M80 44v424a12 12 0 0012 12h328a12 12 0 0012-12V44a12 12 0 00-12-12H92a12 12 0 00-12 12zm192 260H160v-32h112zm80-80H160v-32h192zm0-80H160v-32h192z"/></svg>

<svg xmlns="http://www.w3.org/2000/svg" width="512" height="512" viewBox="0 0 512 512"><title>ionicons-v5-l</title><path d="M80,44V468a12,12,0,0,0,12,12H420a12,12,0,0,0,12-12V44a12,12,0,0,0-12-12H92A12,12,0,0,0,80,44ZM272,304H160V272H272Zm80-80H160V192H352Zm0-80H160V112H352Z"/></svg>
